icons/1_Primary/raidboxes.svg

<svg xmlns="http://www.w3.org/2000/svg" width="1024" height="1024" fill="none">
   <g clip-path="url(#a)">
      <path fill="#54688C" d="M512 1024c282.77 0 512-229.23 512-512S794.77 0 512 0 0 229.23 0 512s229.23 512 512 512Z"/>
      <path fill="#fff" d="m317.45 412.86 293.7-95.43 95.43 293.7-293.7 95.43-12.47-38.4a326.842 326.842 0 0 1-51.28 0L381.57 768 768 642.43 642.43 256 256 381.57l60.72 186.89 4.15 1 .57.14a203.064 203.064 0 0 0 48.71 5.51l-52.7-162.25ZM470 586.57a288.794 288.794 0 0 0 131.37-84l32.51 20.32a306.655 306.655 0 0 1-150.33 102.94 307.565 307.565 0 0 1-182.8 6.77l13.55-35.22A289.128 289.128 0 0 0 470 586.57Z"/>
   </g>
   <defs>
      <clipPath id="a">
         <path fill="#fff" d="M0 0h1024v1024H0z"/>
      </clipPath>
   </defs>
</svg>

<svg width="1024" height="1024" viewBox="0 0 1024 1024" fill="none" xmlns="http://www.w3.org/2000/svg">
<g clip-path="url(#clip0_2_3276)">
<path d="M512 1024C794.77 1024 1024 794.77 1024 512C1024 229.23 794.77 0 512 0C229.23 0 0 229.23 0 512C0 794.77 229.23 1024 512 1024Z" fill="#54688C"/>
<path d="M317.45 412.86L611.15 317.43L706.58 611.13L412.88 706.56L400.41 668.16C383.343 669.503 366.197 669.503 349.13 668.16L381.57 768L768 642.43L642.43 256L256 381.57L316.72 568.46L320.87 569.46L321.44 569.6C337.395 573.397 353.75 575.247 370.15 575.11L317.45 412.86ZM470 586.57C520.664 571.145 566.11 542.086 601.37 502.57L633.88 522.89C595.356 571.641 542.932 607.539 483.55 625.83C424.714 646.574 360.96 648.935 300.75 632.6L314.3 597.38C366.21 608.118 420.072 604.378 470 586.57Z" fill="white"/>
</g>
<defs>
<clipPath id="clip0_2_3276">
<rect width="1024" height="1024" fill="white"/>
</clipPath>
</defs>
</svg>
